X:1
T: Birkhall
C:
R:Reel
Q:232
K:D
M:4/4
L:1/8
A|:d2fd A2dA|FAFD A2FA|B2dB A2d2|e3f e2A2|
de fd A2dA|FAFD A2FA|Bc de f2e2|d4 d2fg|
a2ab a2f2|dfA2 d2ef|g2ga g2e2|ceA2 e2fg|
a2ab a2f2|dfA2 d2ef|ga ge A2Bc|1d4 d3A:|2d4 d2fg|
a^g ab a2f2|dfA2 d2ef|gf ga g2e2|ceA2 e2fg|
a^g ab a2af|dfA2 d2ef|ga ge A2Bc|d4 d3||
